X: 21282
T: The Bounding Roe
%R: reel
B: James Oswald "The Caledonian Pocket Companion" v.2 p.128 #2 & p.129 #0
Z: 2018 John Chambers <jc:trillian.mit.edu>
M: C
L: 1/8
K: Amix
"_Lively"E2 |\
Aa A4 cA | c2 a4 ef | gb G4 BG | B2 g4 dB |\
a2 A4 cA | ce a4 ef | g2G2 dged | TB2A2 A2 :: f^g |
a2ec a2ec | A2 a4 ef | =g2dB g2dB | G2 g4 Bd |\
c2Ac d2Bd | e2ce f2^ga | T^g3f eaBd | Tc2(BA) A2 :: E2 |
AeTc2 AeTc2 | Aaec A3B | GdTB2 GdTB2 | GgdB G3B |\
Ae Tc2 AeTc2 | A2a2 egfa | g2(GA) Bged | TB2A2 A2 :: f^g |
aeTc2 aeTc2 | Aaec Aaef | gdTB2 gdTB2 | GgdB GgBd |\
ceAc dfBd | cef^g (a^g)(ag) | aecA Bfed | Tc2(BA) A2 :|

% Page 129 starts with 2 staffs from the previous page.


